src/components/00-materials/images-raw/Reffrigerator.svg

<svg width="96" height="96" viewBox="0 0 96 96" fill="none" xmlns="http://www.w3.org/2000/svg">
<path d="M28.14 39.2698H65.86M34.88 81.3398H37.91H34.88ZM56.09 81.3398H59.12H56.09ZM35 55.8398C34.5332 55.8398 34.0856 55.6544 33.7555 55.3243C33.4254 54.9943 33.24 54.5466 33.24 54.0798V45.9998C33.2735 45.5547 33.4741 45.1386 33.8014 44.8351C34.1287 44.5315 34.5586 44.3628 35.005 44.3628C35.4514 44.3628 35.8814 44.5315 36.2087 44.8351C36.536 45.1386 36.7365 45.5547 36.77 45.9998V54.0798C36.7674 54.5475 36.5797 54.9952 36.2481 55.325C35.9164 55.6547 35.4677 55.8399 35 55.8398V55.8398ZM35 34.3098C34.5323 34.3072 34.0847 34.1196 33.7549 33.7879C33.4251 33.4562 33.24 33.0075 33.24 32.5398V24.4698C33.2217 24.2269 33.2538 23.9828 33.3342 23.7528C33.4146 23.5228 33.5416 23.3119 33.7073 23.1332C33.873 22.9546 34.0737 22.8121 34.2971 22.7146C34.5204 22.6172 34.7614 22.5669 35.005 22.5669C35.2487 22.5669 35.4897 22.6172 35.713 22.7146C35.9363 22.8121 36.1371 22.9546 36.3027 23.1332C36.4684 23.3119 36.5955 23.5228 36.6759 23.7528C36.7563 23.9828 36.7883 24.2269 36.77 24.4698V32.5398C36.7674 33.0085 36.5801 33.4571 36.2487 33.7885C35.9173 34.1199 35.4686 34.3072 35 34.3098V34.3098Z" stroke="#00008F" stroke-width="2" stroke-linecap="round" stroke-linejoin="round"/>
<path d="M65.4401 17.3198C65.3716 17.1851 65.2947 17.0549 65.2101 16.9298C65.1769 16.8709 65.1402 16.8141 65.1001 16.7598C64.9908 16.5987 64.867 16.4481 64.7301 16.3098L64.5701 16.1498C64.4401 16.0398 64.3101 15.9298 64.1701 15.8298C64.1192 15.7793 64.0621 15.7356 64.0001 15.6998C63.8161 15.5685 63.6182 15.4578 63.4101 15.3698L63.2501 15.3098C63.0783 15.2414 62.901 15.1879 62.7201 15.1498L62.5201 15.0998C62.2824 15.0567 62.0416 15.0333 61.8001 15.0298H32.1801C31.1232 15.0428 30.1133 15.4683 29.366 16.2157C28.6186 16.9631 28.193 17.9729 28.1801 19.0298V76.3798C28.184 76.9844 28.3277 77.5799 28.6001 78.1198C28.6636 78.2551 28.7371 78.3855 28.8201 78.5098L28.9401 78.6798C29.0515 78.8332 29.1717 78.9802 29.3001 79.1198L29.4701 79.2898L29.8601 79.6098L30.0101 79.7198C30.1988 79.8491 30.3998 79.9596 30.6101 80.0498H30.7701C30.9416 80.1214 31.1189 80.1783 31.3001 80.2198H31.5001C31.7376 80.2639 31.9785 80.2873 32.2201 80.2898H61.8201C62.8769 80.2768 63.8868 79.8512 64.6341 79.1039C65.3815 78.3565 65.8071 77.3466 65.8201 76.2898V19.0698C65.8273 18.4652 65.6974 17.8669 65.4401 17.3198V17.3198Z" stroke="#00008F" stroke-width="2" stroke-linecap="round" stroke-linejoin="round"/>
</svg>

<svg width="96" height="96" viewBox="0 0 96 96" fill="none" xmlns="http://www.w3.org/2000/svg"><path d="M28.14 39.27h37.72M34.88 81.34h3.03-3.03zm21.21 0h3.03-3.03zM35 55.84a1.76 1.76 0 01-1.76-1.76V46a1.77 1.77 0 013.53 0v8.08A1.77 1.77 0 0135 55.84v0zm0-21.53a1.77 1.77 0 01-1.76-1.77v-8.07a1.77 1.77 0 113.53 0v8.07A1.78 1.78 0 0135 34.31v0z" stroke="#00008F" stroke-width="2" stroke-linecap="round" stroke-linejoin="round"/><path d="M65.44 17.32a3.649 3.649 0 00-.23-.39 1.65 1.65 0 00-.11-.17 3.167 3.167 0 00-.37-.45l-.16-.16c-.13-.11-.26-.22-.4-.32a.832.832 0 00-.17-.13 3.083 3.083 0 00-.59-.33l-.16-.06a3.235 3.235 0 00-.53-.16l-.2-.05a4.392 4.392 0 00-.72-.07H32.18a4.05 4.05 0 00-4 4v57.35c.004.604.148 1.2.42 1.74.064.135.137.265.22.39l.12.17c.111.153.232.3.36.44l.17.17.39.32.15.11c.189.13.39.24.6.33h.16c.172.071.349.128.53.17h.2c.238.044.479.067.72.07h29.6a4.05 4.05 0 004-4V19.07a4 4 0 00-.38-1.75v0z" stroke="#00008F" stroke-width="2" stroke-linecap="round" stroke-linejoin="round"/></svg>
